icon-svg/aqara-h1-1.svg

<svg xmlns="http://www.w3.org/2000/svg" fill="#44739e" viewBox="0 0 24 24"><path d="M18.943 2.044 17.863 2l.046 20 .994-.069a.394.394 0 0 0 .366-.391V2.383a.339.339 0 0 0-.326-.339m-1.371.046-.772-.033h-.06l-11.587.71a.408.408 0 0 0-.239.1.09.09 0 0 0-.028.02.412.412 0 0 0-.123.288l-.2 17.65a.218.218 0 0 0 .2.219L17.026 22h.017l.346-.022a.063.063 0 0 0 .061-.063l-.02-17.723h.224V2.175a.083.083 0 0 0-.081-.085Z"/></svg>

<?xml version="1.0" encoding="UTF-8"?>
<svg width="24px" fill="#44739e" height="24px" viewBox="0 0 24 24" version="1.1" xmlns="http://www.w3.org/2000/svg" xmlns:xlink="http://www.w3.org/1999/xlink">
            <path d="M 18.943,2.044 17.863,2 17.909,22 18.903,21.931 A 0.394,0.394 0 0 0 19.269,21.54 V 2.383 A 0.339,0.339 0 0 0 18.943,2.044 Z M 17.572,2.09 16.8,2.057 H 16.74 L 5.153,2.767 a 0.408,0.408 0 0 0 -0.239,0.1 0.09,0.09 0 0 0 -0.028,0.02 0.412,0.412 0 0 0 -0.123,0.288 l -0.2,17.65 a 0.218,0.218 0 0 0 0.2,0.219 L 17.026,22 h 0.017 l 0.346,-0.022 A 0.063,0.063 0 0 0 17.45,21.915 L 17.43,4.192 h 0.224 V 2.175 A 0.083,0.083 0 0 0 17.573,2.09 Z"/>

</svg>
